X:61
T:Babes in the Wood
B:Terry "Cuz" Teahan "Sliabh Luachra on Parade" 1980
Z:Patrick Cavanagh
M:2/4
L:1/8
R:Polka
K:D
| A/B/A/G/ FA | de f2 | gf/e/ fe | df A2 | 
A/B/A/G/ FA | de f2 | gf/e/ fe | d2 d2 :| 
| e>f ed | ce a2 | e>^d ef | ge cA | 
e>f ed | ce a2 | gf/e/ fe | d2 d2 :|| 

